app/img/who-suits/3.svg

<svg width="70" height="62" viewBox="0 0 70 62" fill="none" xmlns="http://www.w3.org/2000/svg">
<path fill-rule="evenodd" clip-rule="evenodd" d="M22.874 28.7778C22.874 29.0432 22.9656 29.3031 23.1321 29.5097C23.4873 29.9506 23.4179 30.5962 22.977 30.9514C22.7875 31.104 22.5601 31.1782 22.3344 31.1782C22.0347 31.1782 21.7377 31.0475 21.5351 30.7961C21.076 30.2262 20.8232 29.5094 20.8232 28.7777V26.4974C19.7749 26.8814 18.6443 27.0935 17.4647 27.0935C16.2851 27.0935 15.1546 26.8815 14.1064 26.4974V28.7777C14.1064 30.0682 13.3297 31.2213 12.1715 31.7259L16.3424 34.1093C17.0347 34.505 17.895 34.505 18.5873 34.1093L20.055 33.2707C20.5466 32.9896 21.1731 33.1604 21.454 33.6523C21.735 34.1438 21.5641 34.7702 21.0725 35.0512L19.6048 35.8899C18.9448 36.267 18.2046 36.4557 17.4647 36.4557C16.7247 36.4557 15.9849 36.2672 15.3248 35.8899L9.41705 32.5141L4.52566 33.848C3.06838 34.2455 2.05078 35.5778 2.05078 37.0881V41.4115C2.05078 42.0546 2.574 42.5779 3.21727 42.5779H6.57562V39.2196C6.57562 38.6532 7.03473 38.1942 7.60102 38.1942C8.1673 38.1942 8.62641 38.6532 8.62641 39.2196V58.9467C8.62641 59.5132 8.1673 59.9721 7.60102 59.9721C7.03473 59.9721 6.57562 59.5132 6.57562 58.9467V44.6287H3.21727C3.20203 44.6287 3.18691 44.6282 3.17179 44.6277L3.14672 44.627V56.7549C3.14672 57.3213 2.68762 57.7803 2.12133 57.7803C1.55504 57.7803 1.09594 57.3213 1.09594 56.7549V43.8273C0.424785 43.2372 0 42.3733 0 41.4115V37.0881C0 34.6555 1.63912 32.5096 3.98604 31.8695L11.196 29.9032C11.7022 29.7652 12.0556 29.3024 12.0556 28.7778V25.4578C9.68475 23.8802 8.03592 21.2997 7.72502 18.3258H7.60115C6.65602 18.3258 5.76242 17.9127 5.14965 17.1921C4.53715 16.4719 4.27383 15.5183 4.42723 14.5758C4.54604 13.8447 4.93295 13.2017 5.47982 12.7272V8.53279C5.47982 5.01885 8.28037 2.14652 11.7668 2.03127C12.3718 1.3418 13.2505 0.931641 14.1769 0.931641H21.8486C26.04 0.931641 29.4498 4.34154 29.4498 8.53279V12.7272C29.9966 13.2017 30.3834 13.8449 30.5024 14.5758C30.6558 15.5183 30.3924 16.4719 29.7799 17.1921C29.1672 17.9127 28.2737 18.3258 27.3284 18.3258H27.2046C26.8935 21.2997 25.2448 23.8803 22.874 25.4578V28.7778ZM11.985 4.07836C9.52889 4.07836 7.53061 6.07664 7.53061 8.53279H7.53047V11.8995L7.57454 11.8969C7.62236 11.894 7.67013 11.8912 7.71846 11.8912H8.69709C9.34021 11.8912 9.86357 11.3679 9.86357 10.7247C9.86357 9.87168 10.2345 9.07133 10.8812 8.5235C11.5279 7.97566 12.378 7.74133 13.2141 7.88078L24.2092 9.71309C24.7037 9.79553 25.066 10.2232 25.066 10.7245C25.066 11.3677 25.5892 11.891 26.2325 11.891H27.2111C27.2596 11.891 27.3075 11.8939 27.3554 11.8968L27.3991 11.8994V8.53266C27.3991 5.47221 24.9092 2.98229 21.8487 2.98229H14.1771C13.7635 2.98229 13.389 3.20145 13.1753 3.56867C12.9917 3.88422 12.6541 4.07836 12.2891 4.07836H11.985ZM8.69709 16.275C9.26338 16.275 9.72248 16.7341 9.72248 17.3004C9.72248 21.5695 13.1957 25.0428 17.4649 25.0425C21.7339 25.0425 25.2071 21.5693 25.2071 17.3003C25.2071 16.734 25.6662 16.2749 26.2325 16.2749H27.3284C27.6712 16.2749 27.9954 16.1249 28.2178 15.8634C28.4432 15.5984 28.5357 15.258 28.4782 14.905C28.3903 14.3649 27.8339 13.9419 27.2111 13.9419H26.2325C24.7669 13.9419 23.5271 12.9569 23.1402 11.6142L12.8771 9.90367C12.5486 9.84912 12.316 9.99596 12.2068 10.0884C12.0976 10.1808 11.9144 10.3859 11.9144 10.7192C11.9144 12.4989 10.4712 13.9421 8.69709 13.9421H7.71846C7.0957 13.9421 6.53926 14.3651 6.45135 14.905C6.39393 15.2581 6.48648 15.5986 6.7118 15.8635C6.93424 16.1251 7.2584 16.275 7.60115 16.275H8.69709ZM15.2031 15.1086V16.2046C15.2031 16.7709 14.744 17.23 14.1777 17.23C13.6114 17.23 13.1523 16.7709 13.1523 16.2046V15.1086C13.1523 14.5424 13.6114 14.0833 14.1777 14.0833C14.744 14.0833 15.2031 14.5424 15.2031 15.1086ZM20.752 14.0833C20.1857 14.0833 19.7266 14.5424 19.7266 15.1086V16.2046C19.7266 16.7709 20.1857 17.23 20.752 17.23C21.3182 17.23 21.7773 16.7709 21.7773 16.2046V15.1086C21.7773 14.5424 21.3182 14.0833 20.752 14.0833ZM16.1302 19.4738C16.9919 19.9298 17.9351 19.9297 18.7967 19.4738C19.2973 19.2089 19.9178 19.4 20.1829 19.9005C20.4477 20.4011 20.2566 21.0216 19.7561 21.2865C19.0267 21.6724 18.2553 21.8682 17.4636 21.8682C16.6719 21.8682 15.9005 21.6724 15.1711 21.2865C14.6704 21.0216 14.4794 20.4011 14.7443 19.9005C15.0091 19.3999 15.6295 19.2089 16.1302 19.4738ZM66.0128 36.2533L62.416 35.2724C63.4157 34.9098 64.3788 34.4938 65.2962 34.0218C66.2183 33.5474 66.6556 32.4454 66.3136 31.4586C65.9949 30.539 65.6149 29.0476 65.6149 27.1641V17.3006C65.6149 10.0877 59.7468 4.21973 52.534 4.21973C45.3211 4.21986 39.4531 10.0881 39.4531 17.301V24.9723C39.4531 25.5387 39.9122 25.9977 40.4785 25.9977C41.0448 25.9977 41.5039 25.5387 41.5039 24.9723V23.5866C41.8714 23.7295 42.2661 23.8058 42.6704 23.8058H42.7943C43.3087 28.7253 47.4806 32.5734 52.5341 32.5734C53.7137 32.5734 54.8442 32.3614 55.8924 31.9775V33.1618C55.8924 34.6087 56.8672 35.885 58.2631 36.2658L60.7699 36.9494C59.4618 40.3012 56.1872 42.5782 52.534 42.5782C51.8705 42.5782 51.2093 42.5045 50.5688 42.3592C50.0164 42.2338 49.4672 42.58 49.3419 43.1323C49.2165 43.6845 49.5626 44.2339 50.1149 44.3593C50.904 44.5384 51.7179 44.6291 52.5338 44.6291C57.1073 44.6291 61.1997 41.7319 62.7574 37.4916L65.473 38.2322C66.9304 38.6292 67.948 39.9617 67.948 41.472V45.7953C67.948 46.4386 67.4247 46.9618 66.7815 46.9618H63.4232V44.6994C63.4232 44.1331 62.9641 43.674 62.3978 43.674C61.8315 43.674 61.3724 44.1331 61.3724 44.6994V58.9467C61.3724 59.5132 61.8315 59.9721 62.3978 59.9721C62.9641 59.9721 63.4232 59.5132 63.4232 58.9467V49.0126H66.7815C66.8052 49.0126 66.8286 49.0114 66.8521 49.0108V56.7549C66.8521 57.3213 67.3112 57.7803 67.8775 57.7803C68.4438 57.7803 68.9029 57.3213 68.9029 56.7549V48.2112C69.574 47.6211 69.9988 46.7572 69.9988 45.7953V41.472C69.9988 39.0394 68.3597 36.8933 66.0128 36.2533ZM41.504 17.3008C41.504 11.2188 46.4522 6.27051 52.5342 6.27037C58.6162 6.27037 63.5643 11.2184 63.5643 17.3004V17.6236C63.1657 17.4626 62.7319 17.371 62.2804 17.371H61.3017C60.6585 17.371 60.1352 16.8476 60.1352 16.2045C60.1352 15.7033 59.7729 15.2755 59.2784 15.193L48.2836 13.3606C47.4473 13.2212 46.5974 13.4555 45.9507 14.0033C45.304 14.5512 44.9331 15.3514 44.9331 16.2045C44.9331 16.8478 44.4097 17.371 43.7666 17.371H42.788C42.3364 17.371 41.9026 17.4626 41.504 17.6236V17.3008ZM44.7919 22.7803C44.7919 22.214 44.3328 21.7549 43.7665 21.7549H42.6705C42.3278 21.7549 42.0037 21.6049 41.7812 21.3433C41.5559 21.0784 41.4633 20.7379 41.5207 20.3849C41.6086 19.8449 42.1651 19.4219 42.7878 19.4219H43.7665C45.5405 19.4219 46.9837 17.9786 46.9837 16.1992C46.9837 15.8658 47.1669 15.6608 47.2762 15.5683C47.3853 15.4758 47.6173 15.3288 47.9465 15.3836L58.2096 17.0941C58.5965 18.4368 59.8362 19.4219 61.3019 19.4219H62.2805C62.9032 19.4219 63.4597 19.8449 63.5476 20.3849C63.605 20.7379 63.5126 21.0784 63.2871 21.3433C63.0647 21.605 62.7405 21.7549 62.3978 21.7549H61.3019C60.7356 21.7549 60.2765 22.214 60.2765 22.7803C60.2765 27.0494 56.8033 30.5225 52.5342 30.5225C48.2651 30.5225 44.7919 27.0493 44.7919 22.7803ZM62.2739 23.8056H62.3978C62.8022 23.8056 63.1968 23.7295 63.5643 23.5865V27.164C63.5643 29.3328 64.0057 31.0617 64.376 32.13C64.3857 32.1582 64.3743 32.1898 64.3581 32.1981C62.6204 33.0923 60.7026 33.7757 58.6573 34.2355C58.2306 34.0554 57.9434 33.6339 57.9434 33.1614V30.9373C60.3142 29.3601 61.9629 26.7795 62.2739 23.8056ZM50.2734 20.5886V21.6846C50.2734 22.2509 49.8143 22.71 49.248 22.71C48.6818 22.71 48.2227 22.2509 48.2227 21.6846V20.5886C48.2227 20.0223 48.6818 19.5632 49.248 19.5632C49.8143 19.5632 50.2734 20.0223 50.2734 20.5886ZM55.8223 19.5632C55.256 19.5632 54.7969 20.0223 54.7969 20.5886V21.6846C54.7969 22.2509 55.256 22.71 55.8223 22.71C56.3886 22.71 56.8477 22.2509 56.8477 21.6846V20.5886C56.8477 20.0223 56.3886 19.5632 55.8223 19.5632ZM51.2024 24.9533C52.0642 25.4094 53.0072 25.4094 53.8691 24.9533C54.3695 24.6884 54.9901 24.8796 55.255 25.3801C55.5199 25.8808 55.3287 26.5012 54.8282 26.766C54.0987 27.152 53.3274 27.3478 52.5358 27.3478C51.7442 27.3478 50.9729 27.152 50.2433 26.766C49.7428 26.5012 49.5517 25.8808 49.8165 25.3801C50.0813 24.8796 50.7017 24.6883 51.2024 24.9533ZM35.0005 27.2349C28.3921 27.2349 23.0156 32.6112 23.0156 39.2198V41.4116C23.0156 41.4168 23.016 41.4219 23.0163 41.4269L23.0167 41.4318L23.017 41.4384C23.0244 42.1901 23.2903 42.9177 23.7814 43.4952C24.3942 44.2158 25.2878 44.6289 26.2329 44.6289H26.3626C26.5929 46.6097 27.4893 48.4334 28.9443 49.8453C29.4763 50.3615 30.062 50.8 30.6873 51.1587V52.8225C30.6873 53.3416 30.3533 53.7907 29.8559 53.9399L26.0895 55.0699C24.2509 55.6214 23.0156 57.2817 23.0156 59.2012V60.0429C23.0156 60.6092 23.4747 61.0683 24.041 61.0683C24.6073 61.0683 25.0664 60.6092 25.0664 60.0429V59.2012C25.0664 58.1943 25.7143 57.3235 26.6787 57.0341L28.5679 56.4673C30.3518 58.0241 32.6171 58.8762 35.0004 58.8762C37.3856 58.8762 39.6481 58.0238 41.4319 56.4668L43.3223 57.034C44.2867 57.3233 44.9346 58.1942 44.9346 59.2011V60.0427C44.9346 60.609 45.3937 61.0681 45.96 61.0681C46.5263 61.0681 46.9854 60.609 46.9854 60.0427V59.2011C46.9854 57.2816 45.7502 55.6212 43.9117 55.0697L40.1451 53.9397C39.6479 53.7906 39.3137 53.3415 39.3137 52.8223V51.0969C40.2184 50.5531 41.0215 49.8438 41.6861 49.0124H43.7682C45.5422 49.0124 46.9854 47.569 46.9854 45.7951V39.2194C46.9854 32.6112 41.609 27.2349 35.0005 27.2349ZM39.0302 55.6947C37.8273 56.4302 36.4425 56.8257 35.0005 56.8257C33.5596 56.8257 32.1744 56.4299 30.9713 55.6944C32.0467 55.156 32.7381 54.0624 32.7381 52.8227V52.0035C33.4663 52.1982 34.2237 52.3008 34.9974 52.3008C35.0871 52.3008 35.1772 52.2994 35.2674 52.2967C35.955 52.276 36.6228 52.168 37.2631 51.9866V52.8226C37.2629 54.0625 37.9546 55.1561 39.0302 55.6947ZM35.2057 50.2468C33.3893 50.3017 31.6732 49.6361 30.3723 48.3736C29.0709 47.1108 28.3541 45.4167 28.3541 43.6035C28.3541 43.0372 27.895 42.5781 27.3287 42.5781H26.2327C25.89 42.5781 25.5658 42.4281 25.3434 42.1666C25.1179 41.9015 25.0255 41.5612 25.0829 41.2082C25.1709 40.6682 25.7273 40.2452 26.3501 40.2452H27.3287C29.1028 40.2452 30.546 38.8018 30.546 37.0279V36.3565C30.546 36.3448 30.546 36.3204 30.5752 36.2993C30.6045 36.2783 30.6277 36.2858 30.6388 36.2896L38.4959 38.9086C40.3804 39.5368 41.6466 41.2935 41.6466 43.282C41.6468 47.0158 38.7574 50.1402 35.2057 50.2468ZM44.9346 45.7955C44.9346 46.4388 44.4113 46.962 43.7682 46.962H42.9249C43.4195 45.8329 43.6976 44.5857 43.6976 43.2799C43.6976 40.4094 41.8679 37.8708 39.1446 36.963L31.2875 34.344C30.6426 34.1289 29.9281 34.2379 29.3763 34.6355C28.8245 35.033 28.4953 35.6764 28.4953 36.3563V37.0278C28.4953 37.6709 27.9719 38.1942 27.3288 38.1942H26.3502C25.9116 38.1942 25.4895 38.2804 25.1004 38.433C25.5032 33.322 29.7878 29.2855 35.0005 29.2855C40.4782 29.2855 44.9346 33.742 44.9346 39.2196V45.7955ZM31.7223 40.3862C32.2886 40.3862 32.7477 40.8453 32.7477 41.4116C32.7477 41.9779 32.2886 42.437 31.7223 42.437C31.156 42.437 30.6914 41.9779 30.6914 41.4116C30.6914 40.8453 31.145 40.3862 31.7113 40.3862H31.7223ZM38.2984 40.3862H38.2875C37.7212 40.3862 37.2676 40.8453 37.2676 41.4116C37.2676 41.9779 37.7321 42.437 38.2984 42.437C38.8647 42.437 39.3238 41.9779 39.3238 41.4116C39.3238 40.8453 38.8649 40.3862 38.2984 40.3862ZM35.0004 45.8657C35.5491 45.8657 36.0839 45.6563 36.506 45.276C36.9268 44.8969 37.5752 44.9309 37.9541 45.3515C38.3332 45.7721 38.2994 46.4206 37.8786 46.7996C37.0792 47.5198 36.057 47.9164 35.0004 47.9164C33.9438 47.9164 32.9217 47.5198 32.1222 46.7996C31.7015 46.4206 31.6678 45.7723 32.0467 45.3515C32.4259 44.9308 33.0742 44.897 33.4949 45.276C33.9169 45.6562 34.4518 45.8657 35.0004 45.8657Z" fill="#49B3F7"/>
</svg>

<svg width="70" height="62" fill="none" xmlns="http://www.w3.org/2000/svg"><path fill-rule="evenodd" clip-rule="evenodd" d="M22.874 28.778c0 .265.092.525.258.732a1.025 1.025 0 11-1.597 1.286 3.228 3.228 0 01-.712-2.018v-2.28a9.744 9.744 0 01-6.717 0v2.28c0 1.29-.776 2.443-1.934 2.948l4.17 2.383a2.271 2.271 0 002.245 0l1.468-.838a1.025 1.025 0 111.018 1.78l-1.468.839c-.66.377-1.4.566-2.14.566-.74 0-1.48-.189-2.14-.566l-5.908-3.376-4.891 1.334a3.366 3.366 0 00-2.475 3.24v4.323c0 .644.523 1.167 1.166 1.167h3.359V39.22a1.025 1.025 0 112.05 0v19.727a1.025 1.025 0 11-2.05 0V44.629H3.217l-.045-.001-.025-.001v12.128a1.025 1.025 0 11-2.051 0V43.827A3.21 3.21 0 010 41.411v-4.323a5.421 5.421 0 013.986-5.219l7.21-1.966c.506-.138.86-.6.86-1.125v-3.32a9.802 9.802 0 01-4.331-7.132h-.124a3.213 3.213 0 01-2.451-1.134 3.229 3.229 0 01-.723-2.616 3.117 3.117 0 011.053-1.849V8.533c0-3.514 2.8-6.386 6.287-6.502a3.218 3.218 0 012.41-1.1h7.672c4.191 0 7.6 3.41 7.6 7.602v4.194a3.119 3.119 0 011.053 1.849 3.229 3.229 0 01-.722 2.616 3.213 3.213 0 01-2.452 1.134h-.123a9.802 9.802 0 01-4.331 7.132v3.32zm-10.889-24.7a4.46 4.46 0 00-4.454 4.455V11.9l.044-.003a2.37 2.37 0 01.143-.006h.98c.642 0 1.166-.523 1.166-1.166a2.875 2.875 0 013.35-2.844L24.21 9.713c.495.083.857.51.857 1.012 0 .643.523 1.166 1.167 1.166h.978c.049 0 .097.003.144.006l.044.002V8.533c0-3.06-2.49-5.55-5.55-5.55h-7.672c-.413 0-.788.218-1.002.586-.183.315-.52.51-.886.51h-.304zM8.697 16.275c.566 0 1.025.46 1.025 1.025 0 4.27 3.474 7.743 7.743 7.742 4.269 0 7.742-3.473 7.742-7.742 0-.566.46-1.025 1.026-1.025h1.095a1.166 1.166 0 001.15-1.37c-.088-.54-.644-.963-1.267-.963h-.978a3.223 3.223 0 01-3.093-2.328l-10.263-1.71a.818.818 0 00-.67.184.816.816 0 00-.293.631 3.222 3.222 0 01-3.217 3.223h-.979c-.622 0-1.179.423-1.267.963a1.167 1.167 0 001.15 1.37h1.096zm6.506-1.166v1.096a1.025 1.025 0 01-2.05 0v-1.096a1.025 1.025 0 012.05 0zm5.549-1.026c-.566 0-1.025.46-1.025 1.026v1.096a1.025 1.025 0 002.05 0v-1.096c0-.567-.459-1.026-1.025-1.026zm-4.622 5.39a2.77 2.77 0 002.667 0 1.026 1.026 0 01.96 1.814 4.877 4.877 0 01-2.293.581 4.861 4.861 0 01-2.293-.581 1.025 1.025 0 11.96-1.813zm49.883 16.78l-3.597-.98c1-.363 1.963-.78 2.88-1.251a2.114 2.114 0 001.018-2.563 13.213 13.213 0 01-.7-4.295v-9.863c0-7.213-5.867-13.081-13.08-13.081s-13.08 5.868-13.08 13.081v7.671a1.025 1.025 0 102.05 0v-1.385c.367.143.762.219 1.166.219h.124c.515 4.92 4.687 8.767 9.74 8.767 1.18 0 2.31-.212 3.358-.596v1.185c0 1.447.975 2.723 2.371 3.104l2.507.683a8.876 8.876 0 01-8.236 5.63 8.896 8.896 0 01-1.965-.22 1.025 1.025 0 10-.454 2c.789.18 1.603.27 2.419.27 4.573 0 8.666-2.897 10.223-7.137l2.716.74a3.365 3.365 0 012.475 3.24v4.323c0 .644-.523 1.167-1.166 1.167h-3.359v-2.263a1.025 1.025 0 00-2.05 0v14.248a1.025 1.025 0 102.05 0v-9.934h3.358l.071-.002v7.744a1.025 1.025 0 102.05 0V48.21A3.21 3.21 0 0070 45.795v-4.323a5.421 5.421 0 00-3.986-5.219zM41.504 17.301c0-6.082 4.948-11.03 11.03-11.03 6.082 0 11.03 4.947 11.03 11.03v.323a3.425 3.425 0 00-1.284-.253h-.978a1.168 1.168 0 01-1.167-1.166c0-.502-.362-.93-.857-1.012l-10.994-1.832a2.875 2.875 0 00-3.35 2.844c0 .643-.524 1.166-1.167 1.166h-.979c-.452 0-.885.092-1.284.253V17.3zm3.288 5.48c0-.567-.46-1.026-1.026-1.026H42.67a1.166 1.166 0 01-1.15-1.37c.089-.54.645-.963 1.268-.963h.979a3.222 3.222 0 003.217-3.223c0-.333.183-.538.292-.63a.816.816 0 01.67-.185l10.264 1.71a3.223 3.223 0 003.092 2.328h.979c.622 0 1.179.423 1.267.963a1.166 1.166 0 01-1.15 1.37h-1.096c-.566 0-1.026.459-1.026 1.025 0 4.27-3.473 7.742-7.742 7.742s-7.742-3.473-7.742-7.742zm17.482 1.025h.124c.404 0 .799-.076 1.166-.22v3.578c0 2.169.442 3.898.812 4.966.01.028-.002.06-.018.068-1.738.894-3.655 1.578-5.7 2.038a1.169 1.169 0 01-.715-1.075v-2.224a9.8 9.8 0 004.33-7.131zm-12-3.217v1.096a1.025 1.025 0 01-2.051 0v-1.096a1.025 1.025 0 112.05 0zm5.548-1.026c-.566 0-1.025.46-1.025 1.026v1.096a1.025 1.025 0 002.05 0v-1.096c0-.567-.458-1.026-1.025-1.026zm-4.62 5.39a2.77 2.77 0 002.667 0 1.025 1.025 0 01.96 1.813 4.86 4.86 0 01-2.293.582 4.861 4.861 0 01-2.293-.582 1.025 1.025 0 01.96-1.813zm-16.201 2.282c-6.609 0-11.985 5.376-11.985 11.985v2.212l.001.006a3.218 3.218 0 003.216 3.19h.13a8.618 8.618 0 002.581 5.217 8.76 8.76 0 001.743 1.314v1.663c0 .52-.334.969-.831 1.118l-3.767 1.13a4.287 4.287 0 00-3.073 4.131v.842a1.025 1.025 0 002.05 0V59.2c0-1.007.648-1.877 1.613-2.167l1.889-.567A9.74 9.74 0 0035 58.877a9.733 9.733 0 006.432-2.41l1.89.567a2.248 2.248 0 011.613 2.167v.842a1.025 1.025 0 002.05 0V59.2c0-1.92-1.235-3.58-3.073-4.131l-3.767-1.13a1.16 1.16 0 01-.831-1.118v-1.725a8.947 8.947 0 002.372-2.085h2.082a3.221 3.221 0 003.217-3.217V39.22c0-6.608-5.376-11.984-11.984-11.984zm4.03 28.46a7.701 7.701 0 01-4.03 1.13 7.703 7.703 0 01-4.03-1.13 3.193 3.193 0 001.767-2.872v-.82a8.736 8.736 0 002.53.294 8.219 8.219 0 001.995-.31v.836c0 1.24.692 2.333 1.767 2.872zm-3.825-5.448a6.597 6.597 0 01-4.834-1.873 6.594 6.594 0 01-2.018-4.77c0-.567-.459-1.026-1.025-1.026h-1.096a1.166 1.166 0 01-1.15-1.37c.088-.54.644-.963 1.267-.963h.979a3.221 3.221 0 003.217-3.217v-.672c0-.011 0-.036.03-.057a.064.064 0 01.063-.01l7.857 2.62a4.603 4.603 0 013.15 4.373c0 3.734-2.889 6.858-6.44 6.965zm9.729-4.452c0 .644-.524 1.167-1.167 1.167h-.843a9.163 9.163 0 00.773-3.682 6.65 6.65 0 00-4.553-6.317l-7.858-2.619a2.127 2.127 0 00-1.91.291 2.126 2.126 0 00-.882 1.721v.672c0 .643-.523 1.166-1.166 1.166h-.979c-.438 0-.86.086-1.25.239.403-5.111 4.688-9.148 9.9-9.148 5.478 0 9.935 4.457 9.935 9.935v6.575zm-13.213-5.409a1.025 1.025 0 010 2.051 1.03 1.03 0 01-1.03-1.025 1.02 1.02 0 011.02-1.026h.01zm6.576 0h-.01c-.567 0-1.02.46-1.02 1.026a1.03 1.03 0 001.03 1.025 1.025 1.025 0 000-2.05zM35 45.866c.55 0 1.084-.21 1.506-.59a1.025 1.025 0 011.373 1.524A4.3 4.3 0 0135 47.916a4.3 4.3 0 01-2.878-1.116 1.025 1.025 0 011.373-1.524c.422.38.957.59 1.505.59z" fill="#49B3F7"/></svg>
